X:572
T: Xingfushenghuo yaolaidao
N: C1992
O: China,Fujian Jianou
S: II, 566]
R: Haozi, Gunjian haozi]
M: 2/4
L: 1/16
K: G
e4eged | g2ede4 |
d3eg4 | egeBd4 |
ddddedeg | ge2dB4 |
d3BA2BA | G8 |
eeedg2ge | d4d4 |
d3eg4 | egeBd4 |
d4dddd | e2g2e3d | B4
d3BA2BA | G4G4 |
eeedeg2e | d4d4 |
d3eg4 | egeBd4 |
d4dddd | e2g2e3d | B4
d3BA2BA | G8 |
eeede2ge | d4d4 |
d3eg4 | egeBd4 |
dddde2g2 | egedB4 |
d3BA2BA | G8 |
A2B2
A2B2
A2B2
A2B2
A4z4

@@@ Tune index: 7127
